packages/foundations/assets/icons/functional/images/transportation/bike_trailer_16.svg

<svg width="16" height="16" viewBox="0 0 16 16" fill="none" xmlns="http://www.w3.org/2000/svg">
<g clip-path="url(#clip0_187_846)">
<path fill-rule="evenodd" clip-rule="evenodd" d="M3.31638 3.88588C3.40609 3.87736 3.54195 3.8929 3.72396 3.9325C3.90598 3.9721 5.12831 4.27417 7.39097 4.8387C7.45991 4.85574 7.52626 4.88188 7.5883 4.91642C9.04275 5.72646 10.1778 6.57775 10.9925 7.47883C11.1905 7.69785 11.2499 8.00538 11.1545 8.27876L10.1914 10.1794C10.0556 10.445 9.78342 10.613 9.48516 10.6153L7.0712 10.5555C6.91088 11.4431 6.13432 12.1164 5.20049 12.1164C4.16856 12.1164 3.32866 11.2942 3.30019 10.2691L2.53794 10.2106C2.15879 10.1816 1.85248 9.88965 1.80524 9.51234C1.671 8.49891 1.60274 7.91729 1.60048 7.76748C1.59822 7.61767 1.64572 6.82519 1.74298 5.39004C1.79345 4.54807 2.48632 3.89731 3.31638 3.88588ZM14.3766 9.22131C14.4761 9.61933 14.2478 10.0868 13.7945 10.1915L12.1945 10.5915C11.7659 10.6986 11.3315 10.438 11.2244 10.0094C11.1249 9.61135 11.3481 9.16605 11.8065 9.03923L13.4065 8.63923C13.8351 8.53207 14.2694 8.79268 14.3766 9.22131ZM3.12989 5.90048L3.12471 7.22857C3.12471 7.60413 3.42915 7.90857 3.8047 7.90857C4.15137 7.90857 4.43745 7.64916 4.47941 7.31387L4.48471 6.82334L6.53671 7.25454L7.62254 7.98068C7.90875 8.17198 8.33697 8.11267 8.55083 7.8208C8.7647 7.52893 8.70249 7.12832 8.45157 6.90644L7.18341 6.05131C7.15133 6.02987 7.07204 5.99651 6.94553 5.95122L3.94471 5.31987C3.55025 5.23688 3.1778 5.51226 3.12989 5.90048Z" fill="#1A1C1F"/>
</g>
<defs>
<clipPath id="clip0_187_846">
<rect width="16" height="16" fill="white"/>
</clipPath>
</defs>
</svg>

<svg xmlns="http://www.w3.org/2000/svg" width="16" height="16" fill="none"><g clip-path="url(#a)"><path fill="#1A1C1F" fill-rule="evenodd" d="M3.316 3.886q.135-.013.408.046.273.06 3.667.907a.8.8 0 0 1 .197.077Q9.771 6.13 10.992 7.48a.8.8 0 0 1 .162.8l-.963 1.9a.8.8 0 0 1-.706.436l-2.414-.06a1.902 1.902 0 0 1-3.77-.286l-.763-.058a.8.8 0 0 1-.733-.699q-.2-1.52-.205-1.745-.003-.225.143-2.377a1.6 1.6 0 0 1 1.573-1.504m11.06 5.335c.1.398-.128.866-.582.97l-1.6.4a.8.8 0 0 1-.97-.582.806.806 0 0 1 .582-.97l1.6-.4a.8.8 0 0 1 .97.582M3.13 5.901l-.005 1.328a.68.68 0 0 0 1.354.085l.006-.49 2.052.43 1.086.727a.697.697 0 0 0 .928-.16.69.69 0 0 0-.1-.915l-1.268-.855a1.4 1.4 0 0 0-.237-.1L3.945 5.32a.68.68 0 0 0-.815.58" clip-rule="evenodd"/></g><defs><clipPath id="a"><path fill="#fff" d="M0 0h16v16H0z"/></clipPath></defs></svg>
